X:1
T:C. H. Marsh
T:Laurene Highfield
T:Trusting
%%score { ( 1 2 ) | ( 3 4 ) }
L:1/8
M:4/4
K:F
V:1 treble 
V:2 treble 
V:3 bass 
V:4 bass 
V:1
{/x} A2 A2 A2 A2 | c2 B2 (A2 G2) | F2 F2 FE F2 | G2 A2 B4 | A2 A2 A2 A2 | A2 G2 (G2 A2) | %6
w: Ev\- 'ry day I|trust Thee more, *|Fa\- ther, than * I|did be\- fore;|Not that skies are|al\- ways bright, *|
w: Ev\- 'ry day I|seem to lean *|Har\- der on * the|arms un\- seen;|Dis\- ap\- point\- ments|come, and care, *|
w: Ev\- 'ry day new|truths I trace *|In the gos\- * pel|of Thy grace;|For Thy Word is|meat in\- deed, *|
w: Ev\- 'ry day Thy|lov\- ing care *|Helps me heav\- * y|loads to bear,|And tho' days be|good or ill, *|
 B2 B2 B2 B2 | B2 A2 (G2 A2) | F2 G2 _A2 F2 | A2 A2 c4 | B2 A2 G2 F2 | F2 E2 F4 |] %12
w: But when clouds be\-|dim my sight *|Then this pro\- mise|com\- forts me:|"As thy days thy|strength shall be."|
w: Griefs I find full|hard to bear; *|In this thought di\-|vine I rest:|Thou art God, and|God knows best.|
w: It my hun\- gry|soul can feed, *|And my blind\- ed|eyes still see|That its bless\- ings|are for me.|
w: Grace will be vouch\-|safed me still; *|Faith and hope re\-|peat for me,|"As thy days thy|strength shall be."|
V:2
 F2 F2 F2 F2 | F2 F2 (F2 E2) | D2 D2 D2 D2 | E2 F2 G4 | F2 F2 E2 E2 | D2 D2 D4 | D2 G2 F2 F2 | %7
 E2 F2 E4 | F2 F2 F2 F2 | F2 F2 ^F4 | F2 F2 E2 D2 | D2 C2 C4 |] %12
V:3
 C2 C2 D2 D2 | E2 D2 (C2 B,2) | A,2 A,2 =B,2 B,2 | C2 C2 C4 | C2 C2 C2 C2 | C2 B,2 (G,2 ^F,2) | %6
 G,2 D2 _D2 D2 | C2 C2 (B,2 A,2) | A,2 B,2 =B,2 B,2 | C2 C2 (_E2 D2) | _D2 C2 B,2 A,2 | %11
 B,2 B,2 A,4 |] %12
V:4
 F,2 E,2 D,2 C,2 | A,,2 B,,2 C,4 | D,2 D,2 G,,2 G,,2 | C,2 C,2 C,4 | F,2 F,2 F,2 F,2 | %5
 B,,2 B,,2 (B,,2 =F,2) | G,2 G,2 G,2 G,2 | C,2 C,2 (C,2 ^C,2) | D,2 D,2 _D,2 D,2 | C,2 C,2 A,,4 | %10
 B,,2 C,2 ^C,2 D,2 | G,,2 C,2 F,4 |] %12

